X:1
T:Murdered by a Brother
M:6/8
L:1/8
K:E
 B,| E2 EF-G A| B B2- B2 A| G2 E F2 F| E3- E2 A| B2 c =d2 B| e2- A A2 G|\
 A2 B ^d2 c| B3- B2 A| B2 c=d-c B| e2- A A2 G| A2 B ^d2 c| B3- B2 B,|\
 E2 EF-G A| B B2- B2 A| G2 E F2 F| E3- D2||
